assets/mi-carrito.svg

<svg width="28" height="26" viewBox="0 0 28 26" fill="none" xmlns="http://www.w3.org/2000/svg">
<path d="M26.5966 23.0781C26.5966 24.1396 25.736 25.0001 24.6745 25.0001C23.613 25.0001 22.7524 24.1396 22.7524 23.0781C22.7524 22.0165 23.613 21.156 24.6745 21.156C25.736 21.156 26.5966 22.0165 26.5966 23.0781Z" stroke="black" stroke-width="2"/>
<path d="M0 1H1.89568C3.80547 1 5.44133 2.36726 5.78026 4.24674V4.24674M25.3245 20.8051H12.9452C10.526 20.8051 8.45388 19.0732 8.02456 16.6924L7.82943 15.6103M5.78026 4.24674H21.6232C24.3847 4.24674 26.6232 6.48531 26.6232 9.24674V13.6103C26.6232 14.7149 25.7278 15.6103 24.6232 15.6103H7.82943M5.78026 4.24674L7.82943 15.6103" stroke="black" stroke-width="2"/>
<path d="M12.9596 23.0781C12.9596 24.1396 12.0991 25.0001 11.0375 25.0001C9.97602 25.0001 9.11548 24.1396 9.11548 23.0781C9.11548 22.0165 9.97602 21.156 11.0375 21.156C12.0991 21.156 12.9596 22.0165 12.9596 23.0781Z" stroke="black" stroke-width="2"/>
</svg>

<svg xmlns="http://www.w3.org/2000/svg" width="28" height="26" fill="none"><path stroke="#000" stroke-width="2" d="M26.597 23.078a1.922 1.922 0 1 1-3.845 0 1.922 1.922 0 0 1 3.845 0ZM0 1h1.896A3.947 3.947 0 0 1 5.78 4.247m19.545 16.558h-12.38a5 5 0 0 1-4.92-4.113l-.196-1.082M5.78 4.247h15.843a5 5 0 0 1 5 5v4.363a2 2 0 0 1-2 2H7.83M5.78 4.247 7.83 15.61M12.96 23.078a1.922 1.922 0 1 1-3.844 0 1.922 1.922 0 0 1 3.844 0Z"/></svg>
